X: 4335
T: HITHER NOW GATHER ALL. (Martha.)
%R: air, march
B: James Kerr "Merry Melodies" v.4 p.35 #335
Z: 2016 John Chambers <jc:trillian.mit.edu>
M: 2/4
L: 1/8
K: G
|:!p!DG |\
F2 EF | D2 GA | B2 AG | A2 DA |\
d2 DA | e2 EA | f2 FA | g2 ::\
gf |\
c2 ed | B2 Bc | (AD) (dD) | dG gf |\
c2 ed | B2 Bc | (AD) da | g2 :|

%%sep 1 1 500
%%sep 1 1 500

